img/AH.svg

<?xml version="1.0" encoding="UTF-8" standalone="no"?>

<!-- http://code.google.com/p/vector-playing-cards/ -->

<svg
   xmlns:dc="http://purl.org/dc/elements/1.1/"
   xmlns:cc="http://creativecommons.org/ns#"
   xmlns:rdf="http://www.w3.org/1999/02/22-rdf-syntax-ns#"
   xmlns:svg="http://www.w3.org/2000/svg"
   xmlns="http://www.w3.org/2000/svg"
   xmlns:xlink="http://www.w3.org/1999/xlink"
   xmlns:sodipodi="http://sodipodi.sourceforge.net/DTD/sodipodi-0.dtd"
   xmlns:inkscape="http://www.inkscape.org/namespaces/inkscape"
   width="167.0869141pt"
   height="242.6669922pt"
   viewBox="0 0 167.0869141 242.6669922"
   xml:space="preserve"
   id="svg2"
   version="1.1"
   inkscape:version="0.48.0 r9654"
   sodipodi:docname="A_of_hearts.svg"
   inkscape:export-filename="/home/byron/art/cards/final/PNGs/A_of_hearts.png"
   inkscape:export-xdpi="215.44792"
   inkscape:export-ydpi="215.44792"><metadata
   id="metadata43"><rdf:RDF><cc:Work
       rdf:about=""><dc:format>image/svg+xml</dc:format><dc:type
         rdf:resource="http://purl.org/dc/dcmitype/StillImage" /><dc:title></dc:title></cc:Work></rdf:RDF></metadata><defs
   id="defs41"><radialGradient
     inkscape:collect="always"
     xlink:href="#linearGradient3773"
     id="radialGradient3781"
     cx="-0.15782039"
     cy="-8.8345356"
     fx="-0.15782039"
     fy="-8.8345356"
     r="7.9997029"
     gradientTransform="matrix(-1.5842693,-0.02349808,0.03071979,-2.4775745,-0.24856378,-26.713507)"
     gradientUnits="userSpaceOnUse" /><linearGradient
     id="linearGradient3773"><stop
       style="stop-color:#000000;stop-opacity:1;"
       offset="0"
       id="stop3775" /><stop
       style="stop-color:#000000;stop-opacity:0.64885497;"
       offset="1"
       id="stop3777" /></linearGradient><radialGradient
     inkscape:collect="always"
     xlink:href="#linearGradient3773"
     id="radialGradient3957"
     cx="-0.15782039"
     cy="-8.8345356"
     fx="-0.15782039"
     fy="-8.8345356"
     r="7.9997029"
     gradientTransform="matrix(-1.5842693,-0.02349808,0.03071979,-2.4775745,-0.24856378,-26.713507)"
     gradientUnits="userSpaceOnUse" /><linearGradient
     id="linearGradient3959"><stop
       style="stop-color:#000000;stop-opacity:1;"
       offset="0"
       id="stop3961" /><stop
       style="stop-color:#000000;stop-opacity:0.64885497;"
       offset="1"
       id="stop3963" /></linearGradient><radialGradient
     r="81.902771"
     fy="509.47577"
     fx="168.02475"
     cy="509.47577"
     cx="168.02475"
     gradientTransform="matrix(1.2565605,-0.77740644,0.33663816,0.5361257,-221.20213,359.24256)"
     gradientUnits="userSpaceOnUse"
     id="radialGradient3975"
     xlink:href="#linearGradient3784-4"
     inkscape:collect="always" /><linearGradient
     id="linearGradient3784-4"><stop
       style="stop-color:#ffffff;stop-opacity:0.4351145;"
       offset="0"
       id="stop3786-8" /><stop
       style="stop-color:#000000;stop-opacity:0;"
       offset="1"
       id="stop3788-6" /></linearGradient><radialGradient
     inkscape:collect="always"
     xlink:href="#linearGradient3784-4-5"
     id="radialGradient3929"
     gradientUnits="userSpaceOnUse"
     gradientTransform="matrix(1.2565605,-0.77740644,0.33663816,0.5361257,-221.20213,359.24256)"
     cx="168.02475"
     cy="509.47577"
     fx="168.02475"
     fy="509.47577"
     r="81.902771" /><linearGradient
     id="linearGradient3784-4-5"><stop
       style="stop-color:#ffffff;stop-opacity:0.48854962;"
       offset="0"
       id="stop3786-8-0" /><stop
       style="stop-color:#000000;stop-opacity:0;"
       offset="1"
       id="stop3788-6-3" /></linearGradient><radialGradient
     inkscape:collect="always"
     xlink:href="#linearGradient3784-4-1"
     id="radialGradient3927"
     gradientUnits="userSpaceOnUse"
     gradientTransform="matrix(1.2565605,-0.77740644,0.33663816,0.5361257,-221.20213,359.24256)"
     cx="168.02475"
     cy="509.47577"
     fx="168.02475"
     fy="509.47577"
     r="81.902771" /><linearGradient
     id="linearGradient3784-4-1"><stop
       style="stop-color:#ffffff;stop-opacity:0.23664123;"
       offset="0"
       id="stop3786-8-03" /><stop
       style="stop-color:#000000;stop-opacity:0;"
       offset="1"
       id="stop3788-6-6" /></linearGradient><radialGradient
     inkscape:collect="always"
     xlink:href="#linearGradient3768"
     id="radialGradient3776"
     cx="-0.20602037"
     cy="-4.5786963"
     fx="-0.20602037"
     fy="-4.5786963"
     r="8"
     gradientTransform="matrix(-1,0,0,-1.7201755,-0.41204074,-13.027194)"
     gradientUnits="userSpaceOnUse" /><linearGradient
     id="linearGradient3768"><stop
       style="stop-color:#df0000;stop-opacity:1;"
       offset="0"
       id="stop3770" /><stop
       style="stop-color:#df0000;stop-opacity:0.67175573;"
       offset="1"
       id="stop3772" /></linearGradient><radialGradient
     r="81.902771"
     fy="511.22299"
     fx="171.48665"
     cy="511.22299"
     cx="171.48665"
     gradientTransform="matrix(1.1529891,-0.67391547,0.39482025,0.67549043,-233.63262,270.40076)"
     gradientUnits="userSpaceOnUse"
     id="radialGradient4013"
     xlink:href="#linearGradient3784-4-6"
     inkscape:collect="always" /><linearGradient
     id="linearGradient3784-4-6"><stop
       style="stop-color:#ffffff;stop-opacity:0.31297711;"
       offset="0"
       id="stop3786-8-8" /><stop
       style="stop-color:#000000;stop-opacity:0;"
       offset="1"
       id="stop3788-6-8" /></linearGradient><filter
     color-interpolation-filters="sRGB"
     inkscape:collect="always"
     id="filter3834-6"
     x="-0.13934441"
     width="1.2786888"
     y="-0.16242018"
     height="1.3248404"><feGaussianBlur
       inkscape:collect="always"
       stdDeviation="9.5105772"
       id="feGaussianBlur3836-6" /></filter><radialGradient
     r="81.902771"
     fy="492.63205"
     fx="159.35434"
     cy="492.63205"
     cx="159.35434"
     gradientTransform="matrix(1.0894779,-0.71513803,0.44645273,0.65626582,-244.93331,290.9185)"
     gradientUnits="userSpaceOnUse"
     id="radialGradient4013-8"
     xlink:href="#linearGradient3784-4-2"
     inkscape:collect="always" /><linearGradient
     id="linearGradient3784-4-2"><stop
       style="stop-color:#ffffff;stop-opacity:0.29007635;"
       offset="0"
       id="stop3786-8-1" /><stop
       style="stop-color:#000000;stop-opacity:0;"
       offset="1"
       id="stop3788-6-5" /></linearGradient><filter
     color-interpolation-filters="sRGB"
     inkscape:collect="always"
     id="filter3834-6-3"
     x="-0.13934441"
     width="1.2786888"
     y="-0.16242018"
     height="1.3248404"><feGaussianBlur
       inkscape:collect="always"
       stdDeviation="9.5105772"
       id="feGaussianBlur3836-6-3" /></filter><radialGradient
     r="81.902771"
     fy="492.63205"
     fx="159.35434"
     cy="492.63205"
     cx="159.35434"
     gradientTransform="matrix(1.0894779,-0.71513803,0.44645273,0.65626582,-244.93331,290.9185)"
     gradientUnits="userSpaceOnUse"
     id="radialGradient3073"
     xlink:href="#linearGradient3784-4-2"
     inkscape:collect="always" /></defs><sodipodi:namedview
   pagecolor="#ffffff"
   bordercolor="#666666"
   borderopacity="1"
   objecttolerance="10"
   gridtolerance="10"
   guidetolerance="10"
   inkscape:pageopacity="0"
   inkscape:pageshadow="2"
   inkscape:window-width="1680"
   inkscape:window-height="977"
   id="namedview39"
   showgrid="false"
   inkscape:zoom="1.7208768"
   inkscape:cx="72.124594"
   inkscape:cy="147.27218"
   inkscape:window-x="0"
   inkscape:window-y="25"
   inkscape:window-maximized="1"
   inkscape:current-layer="svg2" />
	<g
   id="Layer_x0020_1"
   style="fill-rule:nonzero;clip-rule:nonzero;stroke:#000000;stroke-miterlimit:4;">
		<path
   style="fill:#FFFFFF;stroke-width:0.5;"
   d="M166.8369141,235.5478516c0,3.7773438-3.0869141,6.8691406-6.8710938,6.8691406H7.1108398c-3.7749023,0-6.8608398-3.0917969-6.8608398-6.8691406V7.1201172C0.25,3.3427734,3.3359375,0.25,7.1108398,0.25h152.8549805    c3.7841797,0,6.8710938,3.0927734,6.8710938,6.8701172v228.4277344z"
   id="path5" />
		<g
   style="stroke:none;"
   id="g7">
			<g
   id="g9">
				
			</g>
			
		</g>
		<g
   id="g15">
			
		</g>
		<g
   id="g19">
			
		</g>
		<g
   style="stroke:none;"
   id="g23">
			<g
   id="g25">
				
			</g>
			
		</g>
		<g
   style="stroke:none;"
   id="g31">
			<g
   id="g33">
				
			</g>
			
		</g>
	</g>



<text
   xml:space="preserve"
   style="font-size:32px;font-style:normal;font-weight:normal;line-height:125%;letter-spacing:0px;word-spacing:0px;fill:#df0000;fill-opacity:1;stroke:none;font-family:Bitstream Vera Sans"
   x="6.2456665"
   y="28.013288"
   id="text3788"
   sodipodi:linespacing="125%"><tspan
     sodipodi:role="line"
     id="tspan3790"
     x="6.2456665"
     y="28.013288"
     style="font-style:normal;font-variant:normal;font-weight:normal;font-stretch:normal;font-family:Arial;-inkscape-font-specification:Arial;fill:#df0000;fill-opacity:1">A</tspan></text>

<g
   transform="matrix(0.19686979,0,0,0.19686979,11.54991,16.869674)"
   id="g3036"><g
     style="stroke:none"
     id="layer1-9"
     transform="matrix(34.670635,0,0,32.448413,363.65075,535.3979)"><path
       sodipodi:nodetypes="scsscss"
       d="M 3.676,-9 C 0.433,-9 0,-5.523 0,-5.523 0,-5.523 -0.433,-9 -3.676,-9 -5.946,-9 -8,-7.441 -8,-4.5 -8,-0.614 -1.4208493,3.2938141 0,9 1.35201,3.2985969 8,-0.614 8,-4.5 8,-7.441 5.946,-9 3.676,-9 z"
       id="hl"
       inkscape:connector-curvature="0"
       style="fill:url(#radialGradient3776);fill-opacity:1;stroke:none" /></g><path
     transform="matrix(1.484247,0,0,1.537104,-80.688965,-450.59362)"
     sodipodi:nodetypes="cscsc"
     inkscape:connector-curvature="0"
     id="path3762-6-4"
     d="m 117.3013,604.26609 c 0,0 -8.06755,-94.94997 22.85715,-122.85714 34.76052,-31.36871 140,-11.42857 140,-11.42857 0,0 -71.5404,24.83762 -100,48.57143 -27.21033,22.69199 -62.85715,85.71428 -62.85715,85.71428 z"
     style="fill:url(#radialGradient4013);fill-opacity:1;stroke:none;filter:url(#filter3834-6)" /><path
     transform="matrix(1.153293,0.33782551,-0.32928251,1.4016433,422.93775,-451.90481)"
     sodipodi:nodetypes="cscsc"
     inkscape:connector-curvature="0"
     id="path3762-6-2-3"
     d="m 117.3013,604.26609 c 0,0 -8.06755,-94.94997 22.85715,-122.85714 34.76052,-31.36871 140,-11.42857 140,-11.42857 0,0 -63.09295,37.07057 -91.55255,60.80438 -27.21033,22.69199 -71.3046,73.48133 -71.3046,73.48133 z"
     style="fill:url(#radialGradient3073);fill-opacity:1;stroke:none;filter:url(#filter3834-6-3)" /></g><g
   transform="matrix(1.6743072,0,0,1.5669921,17.177511,46.385321)"
   id="layer1-9-6"
   style="fill:#df0000;fill-opacity:1"><path
     style="fill:#df0000;fill-opacity:1"
     inkscape:connector-curvature="0"
     id="hl-8"
     d="M 3.676,-9 C 0.433,-9 0,-5.523 0,-5.523 0,-5.523 -0.433,-9 -3.676,-9 -5.946,-9 -8,-7.441 -8,-4.5 -8,-0.614 -1.4208493,3.2938141 0,9 1.35201,3.2985969 8,-0.614 8,-4.5 8,-7.441 5.946,-9 3.676,-9 z"
     sodipodi:nodetypes="scsscss" /></g><text
   xml:space="preserve"
   style="font-size:32px;font-style:normal;font-weight:normal;line-height:125%;letter-spacing:0px;word-spacing:0px;fill:#df0000;fill-opacity:1;stroke:none;font-family:Bitstream Vera Sans"
   x="-161.08786"
   y="-213.51517"
   id="text3788-4"
   sodipodi:linespacing="125%"
   transform="scale(-1,-1)"><tspan
     sodipodi:role="line"
     id="tspan3790-3"
     x="-161.08786"
     y="-213.51517"
     style="font-style:normal;font-variant:normal;font-weight:normal;font-stretch:normal;fill:#df0000;fill-opacity:1;font-family:Arial;-inkscape-font-specification:Arial">A</tspan></text>
<g
   transform="matrix(-1.6743072,0,0,-1.5669921,150.15601,195.14313)"
   id="layer1-9-6-5"
   style="fill:#df0000;fill-opacity:1"><path
     style="fill:#df0000;fill-opacity:1"
     inkscape:connector-curvature="0"
     id="hl-8-1"
     d="M 3.676,-9 C 0.433,-9 0,-5.523 0,-5.523 0,-5.523 -0.433,-9 -3.676,-9 -5.946,-9 -8,-7.441 -8,-4.5 -8,-0.614 -1.4208493,3.2938141 0,9 1.35201,3.2985969 8,-0.614 8,-4.5 8,-7.441 5.946,-9 3.676,-9 z"
     sodipodi:nodetypes="scsscss" /></g></svg>

<?xml version="1.0" encoding="UTF-8"?>
<!-- http://code.google.com/p/vector-playing-cards/ -->
<svg width="167.09pt" height="242.67pt" version="1.1" viewBox="0 0 167.09 242.67" xml:space="preserve" xmlns="http://www.w3.org/2000/svg" xmlns:cc="http://creativecommons.org/ns#" xmlns:dc="http://purl.org/dc/elements/1.1/" xmlns:rdf="http://www.w3.org/1999/02/22-rdf-syntax-ns#" xmlns:xlink="http://www.w3.org/1999/xlink"><metadata><rdf:RDF><cc:Work rdf:about=""><dc:format>image/svg+xml</dc:format><dc:type rdf:resource="http://purl.org/dc/dcmitype/StillImage"/><dc:title/></cc:Work></rdf:RDF></metadata><defs><radialGradient id="b" cx="-.20602" cy="-4.5787" r="8" gradientTransform="matrix(-1 0 0 -1.7202 -.41204 -13.027)" gradientUnits="userSpaceOnUse"><stop stop-color="#df0000" offset="0"/><stop stop-color="#df0000" stop-opacity=".67176" offset="1"/></radialGradient><radialGradient id="a" cx="171.49" cy="511.22" r="81.903" gradientTransform="matrix(1.153 -.67392 .39482 .67549 -233.63 270.4)" gradientUnits="userSpaceOnUse"><stop stop-color="#fff" stop-opacity=".31298" offset="0"/><stop stop-opacity="0" offset="1"/></radialGradient><filter id="e" x="-.13934" y="-.16242" width="1.2787" height="1.3248" color-interpolation-filters="sRGB"><feGaussianBlur stdDeviation="9.5105772"/></filter><filter id="d" x="-.13934" y="-.16242" width="1.2787" height="1.3248" color-interpolation-filters="sRGB"><feGaussianBlur stdDeviation="9.5105772"/></filter><radialGradient id="c" cx="159.35" cy="492.63" r="81.903" gradientTransform="matrix(1.0895 -.71514 .44645 .65627 -244.93 290.92)" gradientUnits="userSpaceOnUse"><stop stop-color="#fff" stop-opacity=".29008" offset="0"/><stop stop-opacity="0" offset="1"/></radialGradient></defs>
	<g stroke="#000">
		<path d="m166.84 235.55c0 3.7773-3.0869 6.8691-6.8711 6.8691h-152.85c-3.7749 0-6.8608-3.0918-6.8608-6.8691v-228.43c0-3.7773 3.0859-6.8701 6.8608-6.8701h152.85c3.7842 0 6.8711 3.0928 6.8711 6.8701v228.43z" fill="#fff" stroke-width=".5"/>
		<g stroke="none">
		</g>
		<g stroke="none">
		</g>
		<g stroke="none">
		</g>
	</g>
<text x="6.2456665" y="28.013288" fill="#df0000" font-family="Bitstream Vera Sans" font-size="32px" letter-spacing="0px" word-spacing="0px" style="line-height:125%" xml:space="preserve"><tspan x="6.2456665" y="28.013288" fill="#df0000" font-family="Arial">A</tspan></text>
<g transform="matrix(.19687 0 0 .19687 11.55 16.87)"><g transform="matrix(34.671 0 0 32.448 363.65 535.4)"><path d="m3.676-9c-3.243 0-3.676 3.477-3.676 3.477s-0.433-3.477-3.676-3.477c-2.27 0-4.324 1.559-4.324 4.5 0 3.886 6.5792 7.7938 8 13.5 1.352-5.7014 8-9.614 8-13.5 0-2.941-2.054-4.5-4.324-4.5z" fill="url(#b)"/></g><path transform="matrix(1.4842 0 0 1.5371 -80.689 -450.59)" d="m117.3 604.27s-8.0676-94.95 22.857-122.86c34.761-31.369 140-11.429 140-11.429s-71.54 24.838-100 48.571c-27.21 22.692-62.857 85.714-62.857 85.714z" fill="url(#a)" filter="url(#e)"/><path transform="matrix(1.1533 .33783 -.32928 1.4016 422.94 -451.9)" d="m117.3 604.27s-8.0676-94.95 22.857-122.86c34.761-31.369 140-11.429 140-11.429s-63.093 37.071-91.553 60.804c-27.21 22.692-71.305 73.481-71.305 73.481z" fill="url(#c)" filter="url(#d)"/></g><g transform="matrix(1.6743 0 0 1.567 17.178 46.385)" fill="#df0000"><path d="m3.676-9c-3.243 0-3.676 3.477-3.676 3.477s-0.433-3.477-3.676-3.477c-2.27 0-4.324 1.559-4.324 4.5 0 3.886 6.5792 7.7938 8 13.5 1.352-5.7014 8-9.614 8-13.5 0-2.941-2.054-4.5-4.324-4.5z" fill="#df0000"/></g><text transform="scale(-1)" x="-161.08786" y="-213.51517" fill="#df0000" font-family="Bitstream Vera Sans" font-size="32px" letter-spacing="0px" word-spacing="0px" style="line-height:125%" xml:space="preserve"><tspan x="-161.08786" y="-213.51517" fill="#df0000" font-family="Arial">A</tspan></text>
<g transform="matrix(-1.6743 0 0 -1.567 150.16 195.14)" fill="#df0000"><path d="m3.676-9c-3.243 0-3.676 3.477-3.676 3.477s-0.433-3.477-3.676-3.477c-2.27 0-4.324 1.559-4.324 4.5 0 3.886 6.5792 7.7938 8 13.5 1.352-5.7014 8-9.614 8-13.5 0-2.941-2.054-4.5-4.324-4.5z" fill="#df0000"/></g></svg>
